assets/Man getting haircut/Dark/Flat/man_getting_haircut_flat_dark.svg

<svg width="32" height="32" viewBox="0 0 32 32" fill="none" xmlns="http://www.w3.org/2000/svg">
<path d="M24.9299 3L23.5291 7.84087L23.6836 8.89844L23.9219 9.01172L24.708 8.17998L25.8399 4.25C25.9899 3.75 25.6999 3.22 25.1899 3.08L24.9299 3Z" fill="#D3D3D3"/>
<path d="M3 30C3 24.201 7.70101 19.5 13.5 19.5H15.5C21.299 19.5 26 24.201 26 30H3Z" fill="#00A6ED"/>
<path d="M14.4199 22.5C13.1899 22.5 12.1899 21.5 12.1899 20.27V18.8H16.6599V20.27C16.6499 21.5 15.6499 22.5 14.4199 22.5Z" fill="#452829"/>
<path d="M11.0701 13.8699C11.0701 14.8309 10.2911 15.6099 9.33009 15.6099C8.36911 15.6099 7.59009 14.8309 7.59009 13.8699C7.59009 12.9089 8.36911 12.1299 9.33009 12.1299C10.2911 12.1299 11.0701 12.9089 11.0701 13.8699Z" fill="#4E3233"/>
<path d="M21.26 13.8699C21.26 14.8309 20.481 15.6099 19.52 15.6099C18.5591 15.6099 17.78 14.8309 17.78 13.8699C17.78 12.9089 18.5591 12.1299 19.52 12.1299C20.481 12.1299 21.26 12.9089 21.26 13.8699Z" fill="#4E3233"/>
<path d="M13.9499 6.11013C10.9999 6.11013 8.66004 8.61012 8.87004 11.5601L9.29004 17.4801C9.47004 19.3401 10.93 20.6601 12.72 20.6601H16.14C17.92 20.6601 19.39 19.3301 19.57 17.4801L19.99 11.5601C20.2 8.61012 17.86 6.11011 14.91 6.11011L13.9499 6.11013Z" fill="#573739"/>
<path d="M10.4442 11.9164C10.5428 11.9867 10.6608 12.0245 10.7819 12.0245C10.909 12.0251 11.0329 11.9844 11.1349 11.9085C11.5317 11.6459 12.0106 11.5371 12.4819 11.6025C12.5578 11.6117 12.6348 11.606 12.7084 11.5855C12.7821 11.565 12.851 11.5302 12.9112 11.483C12.9715 11.4359 13.0218 11.3774 13.0594 11.3108C13.097 11.2442 13.1211 11.1709 13.1304 11.095C13.1396 11.0191 13.1339 10.9421 13.1134 10.8684C13.0929 10.7948 13.0581 10.7258 13.0109 10.6656C12.9638 10.6054 12.9053 10.5551 12.8387 10.5175C12.7721 10.4799 12.6988 10.4557 12.6229 10.4465C11.8481 10.3449 11.0634 10.5368 10.4229 10.9845C10.3276 11.0592 10.258 11.1618 10.2238 11.2779C10.1895 11.394 10.1923 11.5179 10.2319 11.6324C10.2714 11.7468 10.3456 11.8461 10.4442 11.9164Z" fill="black"/>
<path d="M17.7168 11.9075C17.8176 11.9854 17.9414 12.0277 18.0688 12.0275L18.0718 12.0325C18.1932 12.0322 18.3115 11.9941 18.4101 11.9235C18.5088 11.8528 18.583 11.7531 18.6223 11.6383C18.6616 11.5235 18.664 11.3992 18.6294 11.2829C18.5947 11.1666 18.5246 11.064 18.4288 10.9895C17.787 10.5449 17.0034 10.3533 16.2288 10.4515C16.0756 10.4705 15.9362 10.5495 15.8411 10.6711C15.7461 10.7928 15.7032 10.9472 15.7218 11.1005C15.7304 11.1767 15.754 11.2505 15.7914 11.3175C15.8288 11.3845 15.8792 11.4433 15.9397 11.4905C16.0001 11.5377 16.0694 11.5724 16.1435 11.5925C16.2175 11.6126 16.2948 11.6177 16.3708 11.6075C16.8409 11.5435 17.3184 11.6499 17.7168 11.9075Z" fill="black"/>
<path d="M10.4401 13.5499C10.6001 12.9099 11.1801 12.4299 11.8801 12.4299C12.6001 12.4299 13.2101 12.9399 13.3401 13.6199C13.3701 13.7699 13.2501 13.9099 13.1001 13.9099H10.7301C10.5401 13.9099 10.3901 13.7299 10.4401 13.5499Z" fill="white"/>
<path d="M18.41 13.5499C18.25 12.9099 17.67 12.4299 16.97 12.4299C16.24 12.4299 15.64 12.9399 15.51 13.6199C15.48 13.7699 15.6 13.9099 15.75 13.9099H18.12C18.31 13.9099 18.46 13.7299 18.41 13.5499Z" fill="white"/>
<path d="M11.1501 13.66C11.1501 13.14 11.5801 12.71 12.1001 12.71C12.6301 12.71 13.0501 13.13 13.0401 13.66C13.0401 13.75 13.0301 13.83 13.0101 13.91H11.1801C11.1601 13.83 11.1501 13.75 11.1501 13.66Z" fill="#7D4533"/>
<path d="M17.7 13.66C17.7 13.14 17.27 12.71 16.75 12.71C16.22 12.71 15.8 13.13 15.81 13.66C15.81 13.75 15.82 13.83 15.84 13.91H17.67C17.69 13.83 17.7 13.75 17.7 13.66Z" fill="#7D4533"/>
<path d="M12.1001 13.1201C12.4001 13.1201 12.6401 13.3601 12.6401 13.6601C12.6401 13.7501 12.6201 13.8401 12.5801 13.9101H11.6201C11.5801 13.8401 11.5601 13.7501 11.5601 13.6601C11.5601 13.3601 11.8001 13.1201 12.1001 13.1201Z" fill="black"/>
<path d="M16.7402 13.1201C16.4402 13.1201 16.2002 13.3601 16.2002 13.6601C16.2002 13.7501 16.2302 13.8401 16.2602 13.9101H17.2202C17.2602 13.8401 17.2802 13.7501 17.2802 13.6601C17.2802 13.3601 17.0402 13.1201 16.7402 13.1201Z" fill="black"/>
<path d="M11.9501 13.2901C11.9501 13.384 11.874 13.4601 11.7801 13.4601C11.6862 13.4601 11.6101 13.384 11.6101 13.2901C11.6101 13.1962 11.6862 13.1201 11.7801 13.1201C11.874 13.1201 11.9501 13.1962 11.9501 13.2901Z" fill="white"/>
<path d="M16.62 13.2901C16.62 13.384 16.5439 13.4601 16.45 13.4601C16.3561 13.4601 16.28 13.384 16.28 13.2901C16.28 13.1962 16.3561 13.1201 16.45 13.1201C16.5439 13.1201 16.62 13.1962 16.62 13.2901Z" fill="white"/>
<path d="M14.0301 13.5801L13.4801 15.3601C13.3701 15.7201 13.6401 16.0901 14.0201 16.0901H14.8301C15.2101 16.0901 15.4801 15.7201 15.3701 15.3601L14.8201 13.5801C14.7001 13.1901 14.1501 13.1901 14.0301 13.5801Z" fill="#3D2123"/>
<path d="M14.4201 16.9901C13.8501 16.9901 13.3101 16.8501 12.8601 16.6101C12.7101 16.5301 12.5401 16.7001 12.6401 16.8501C13.0201 17.4401 13.6801 17.8201 14.4301 17.8201C15.1801 17.8201 15.8401 17.4301 16.2201 16.8501C16.3101 16.7001 16.1501 16.5301 16.0001 16.6101C15.5301 16.8501 15.0001 16.9901 14.4201 16.9901Z" fill="#290118"/>
<path d="M21.1519 8.98531C22.1557 8.52018 24.32 6.83081 24.32 5.43997C24.32 5.07997 23.87 4.91997 23.65 5.20997C23.2079 5.77954 21.4506 7.07901 19.834 7.06874L19.5502 6.92996C19.2302 6.76996 18.9402 6.55996 18.6902 6.30996L17.8102 5.43996C17.1502 4.77996 16.1702 4.55996 15.3002 4.86996C14.7302 5.06996 14.1102 5.06996 13.5402 4.86996C12.7702 4.47996 11.8402 4.62996 11.2302 5.23996L10.1502 6.29996C9.89016 6.55996 9.60016 6.76996 9.28016 6.92996L8.83016 7.14996C8.01016 7.55996 7.55016 8.47996 7.72016 9.38996L8.32016 12.67C8.38016 13 8.66016 13.24 8.99016 13.25C8.99016 13.25 8.93016 12.32 8.89016 11.72C8.87016 11.4 8.99016 11.1 9.22016 10.9L9.42016 10.73C9.69016 10.49 9.84016 10.15 9.84016 9.78996V8.86996C9.84016 8.60996 10.0202 8.37996 10.2702 8.31996C10.9502 8.14996 12.4002 7.85996 14.4202 7.85996C16.4402 7.85996 17.8902 8.14996 18.5702 8.31996C18.8202 8.36996 19.0002 8.59996 19.0002 8.85996V9.77996C19.0002 10.14 19.1502 10.48 19.4202 10.72L19.6302 10.91C19.8602 11.12 19.9802 11.42 19.9602 11.72C19.9202 12.32 19.8602 13.24 19.8602 13.24C20.1802 13.22 20.4602 12.99 20.5202 12.66L21.1202 9.37996C21.1436 9.24828 21.1539 9.11618 21.1519 8.98531Z" fill="black"/>
<path d="M20.2 5.60986L25.0399 7.01047L25.8789 7.6991L25.793 8.15222L24.705 8.18465L20.8 7.05986C20.3 6.90986 19.98 6.35986 20.13 5.85986L20.2 5.60986Z" fill="#D3D3D3"/>
<path d="M24.29 7.72012C24.4557 7.72012 24.59 7.5858 24.59 7.42012C24.59 7.25443 24.4557 7.12012 24.29 7.12012C24.1243 7.12012 23.99 7.25443 23.99 7.42012C23.99 7.5858 24.1243 7.72012 24.29 7.72012Z" fill="#9B9B9B"/>
<path d="M25.0465 7.0046L24.7073 8.18217L25.3298 8.36993C25.3398 8.62993 25.4098 8.89993 25.5498 9.14993C26.0398 10.0399 27.1598 10.3599 28.0498 9.86993C28.9398 9.37993 29.2598 8.25993 28.7698 7.36993C28.2798 6.47993 27.1598 6.14993 26.2698 6.63993C26.0198 6.77993 25.8198 6.95993 25.6698 7.17993L25.0465 7.0046ZM26.7498 7.50993C27.1598 7.27993 27.6798 7.42993 27.9098 7.84993C28.1398 8.25993 27.9898 8.77993 27.5698 9.00993C27.1598 9.23993 26.6398 9.08993 26.4098 8.66993C26.1798 8.25993 26.3398 7.73993 26.7498 7.50993Z" fill="#F8312F"/>
<path d="M23.34 8.47992L23.5249 7.84482L24.7033 8.18422L24.52 8.82992C24.74 8.97992 24.92 9.17992 25.06 9.42992C25.55 10.3199 25.23 11.4399 24.34 11.9299C23.45 12.4199 22.33 12.0899 21.84 11.1999C21.35 10.3099 21.67 9.18992 22.56 8.69992C22.81 8.55992 23.08 8.48992 23.34 8.47992ZM24.21 9.88992C23.98 9.46992 23.46 9.31992 23.05 9.54992C22.63 9.77992 22.48 10.2999 22.71 10.7099C22.94 11.1299 23.46 11.2799 23.87 11.0499C24.29 10.8199 24.44 10.2999 24.21 9.88992Z" fill="#F8312F"/>
</svg>

<svg xmlns="http://www.w3.org/2000/svg" width="32" height="32" fill="none"><path fill="#D3D3D3" d="m24.93 3-1.4 4.84.154 1.058.238.114.786-.832 1.132-3.93a.935.935 0 0 0-.65-1.17L24.93 3Z"/><path fill="#00A6ED" d="M3 30c0-5.799 4.701-10.5 10.5-10.5h2C21.299 19.5 26 24.201 26 30H3Z"/><path fill="#452829" d="M14.42 22.5c-1.23 0-2.23-1-2.23-2.23V18.8h4.47v1.47a2.247 2.247 0 0 1-2.24 2.23Z"/><path fill="#4E3233" d="M11.07 13.87a1.74 1.74 0 1 1-3.48 0 1.74 1.74 0 0 1 3.48 0ZM21.26 13.87a1.74 1.74 0 1 1-3.48 0 1.74 1.74 0 0 1 3.48 0Z"/><path fill="#573739" d="M13.95 6.11a5.09 5.09 0 0 0-5.08 5.45l.42 5.92c.18 1.86 1.64 3.18 3.43 3.18h3.42c1.78 0 3.25-1.33 3.43-3.18l.42-5.92a5.09 5.09 0 0 0-5.08-5.45h-.96Z"/><path fill="#000" d="M10.444 11.916a.587.587 0 0 0 .69-.008 1.954 1.954 0 0 1 1.348-.306.583.583 0 0 0 .14-1.155 3.13 3.13 0 0 0-2.2.538.582.582 0 0 0 .022.931ZM17.717 11.908c.1.077.224.12.352.12l.003.005a.584.584 0 0 0 .357-1.043 3.165 3.165 0 0 0-2.2-.539.583.583 0 0 0 .142 1.156c.47-.063.947.043 1.346.3Z"/><path fill="#fff" d="M10.44 13.55c.16-.64.74-1.12 1.44-1.12.72 0 1.33.51 1.46 1.19.03.15-.09.29-.24.29h-2.37c-.19 0-.34-.18-.29-.36ZM18.41 13.55c-.16-.64-.74-1.12-1.44-1.12-.73 0-1.33.51-1.46 1.19-.03.15.09.29.24.29h2.37c.19 0 .34-.18.29-.36Z"/><path fill="#7D4533" d="M11.15 13.66c0-.52.43-.95.95-.95.53 0 .95.42.94.95 0 .09-.01.17-.03.25h-1.83c-.02-.08-.03-.16-.03-.25ZM17.7 13.66c0-.52-.43-.95-.95-.95-.53 0-.95.42-.94.95 0 .09.01.17.03.25h1.83c.02-.08.03-.16.03-.25Z"/><path fill="#000" d="M12.1 13.12c.3 0 .54.24.54.54 0 .09-.02.18-.06.25h-.96a.514.514 0 0 1-.06-.25c0-.3.24-.54.54-.54ZM16.74 13.12a.538.538 0 0 0-.48.79h.96c.04-.07.06-.16.06-.25 0-.3-.24-.54-.54-.54Z"/><path fill="#fff" d="M11.95 13.29a.17.17 0 1 1-.34 0 .17.17 0 0 1 .34 0ZM16.62 13.29a.17.17 0 1 1-.34 0 .17.17 0 0 1 .34 0Z"/><path fill="#3D2123" d="m14.03 13.58-.55 1.78c-.11.36.16.73.54.73h.81c.38 0 .65-.37.54-.73l-.55-1.78a.413.413 0 0 0-.79 0Z"/><path fill="#290118" d="M14.42 16.99c-.57 0-1.11-.14-1.56-.38-.15-.08-.32.09-.22.24.38.59 1.04.97 1.79.97s1.41-.39 1.79-.97c.09-.15-.07-.32-.22-.24-.47.24-1 .38-1.58.38Z"/><path fill="#000" d="M21.152 8.985c1.004-.465 3.168-2.154 3.168-3.545 0-.36-.45-.52-.67-.23-.442.57-2.2 1.869-3.816 1.859l-.284-.139a3.31 3.31 0 0 1-.86-.62l-.88-.87c-.66-.66-1.64-.88-2.51-.57-.57.2-1.19.2-1.76 0-.77-.39-1.7-.24-2.31.37L10.15 6.3c-.26.26-.55.47-.87.63l-.45.22c-.82.41-1.28 1.33-1.11 2.24l.6 3.28c.06.33.34.57.67.58l-.1-1.53c-.02-.32.1-.62.33-.82l.2-.17c.27-.24.42-.58.42-.94v-.92c0-.26.18-.49.43-.55.68-.17 2.13-.46 4.15-.46 2.02 0 3.47.29 4.15.46.25.05.43.28.43.54v.92c0 .36.15.7.42.94l.21.19c.23.21.35.51.33.81l-.1 1.52c.32-.02.6-.25.66-.58l.6-3.28c.024-.132.034-.264.032-.395Z"/><path fill="#D3D3D3" d="m20.2 5.61 4.84 1.4.839.69-.086.452-1.088.033L20.8 7.06c-.5-.15-.82-.7-.67-1.2l.07-.25Z"/><path fill="#9B9B9B" d="M24.29 7.72a.3.3 0 1 0 0-.6.3.3 0 0 0 0 .6Z"/><path fill="#F8312F" d="m25.047 7.005-.34 1.177.623.188c.01.26.08.53.22.78a1.84 1.84 0 0 0 3.22-1.78 1.843 1.843 0 0 0-2.5-.73c-.25.14-.45.32-.6.54l-.623-.175Zm1.703.505c.41-.23.93-.08 1.16.34.23.41.08.93-.34 1.16-.41.23-.93.08-1.16-.34a.857.857 0 0 1 .34-1.16ZM23.34 8.48l.185-.635 1.178.34-.183.645c.22.15.4.35.54.6.49.89.17 2.01-.72 2.5-.89.49-2.01.16-2.5-.73a1.84 1.84 0 0 1 .72-2.5c.25-.14.52-.21.78-.22Zm.87 1.41a.849.849 0 0 0-1.16-.34c-.42.23-.57.75-.34 1.16.23.42.75.57 1.16.34.42-.23.57-.75.34-1.16Z"/></svg>
